X: 14942
T: Gavottes Des Montagnes
R: polka
M: 2/4
K: Dmajor
|:ee dB|cA FE|FA cd|B2B2:|
|:fe gg|fe de|fd gf|ed c2|
ef dB|cA FE|FA cd|1 B2 B2:|2 B2 B/c/d||

